X: 6
T:The Mason's Apron
M:C|
L:1/8
Q:1/2=120
R:Reel
K:G
B2 G2 GAGE | DEGA B2 AB | c2 A2 ABAG | FGAB cdef | g2 G2 BAGE | DEGA B2
AB | cBcd efge | dcBA G3 A || B2 G2 GAGE | DEGA B2 AB | c2 A2 ABAG | FGA
B cdef | g2 G2 BAGE | DEGA B2 AB | cBcd efge | dcBA G2 ||  dc | BGdB eBd
B | GBdB edcB | cAec fcec | cAec fedc |  BGdB eBdB | GBdB edcB |  cBcd e
fge | dcBA G2 ||  dc | BGdB eBdB | GBdB edcB | cAec fcec | cAec fedc |
BGdB eBdB | GBdB edcB |  cBcd efge | dcBA G4 ||
